public/assets/images/people.svg

<svg width="24" height="25" viewBox="0 0 24 25" fill="none" xmlns="http://www.w3.org/2000/svg">
<g id="people">
<path id="Vector" d="M9 13.9512C6.66 13.9512 2 15.1212 2 17.4512V19.2012H16V17.4512C16 15.1212 11.34 13.9512 9 13.9512ZM4.34 17.2012C5.18 16.6212 7.21 15.9512 9 15.9512C10.79 15.9512 12.82 16.6212 13.66 17.2012H4.34ZM9 12.2012C10.93 12.2012 12.5 10.6312 12.5 8.70117C12.5 6.77117 10.93 5.20117 9 5.20117C7.07 5.20117 5.5 6.77117 5.5 8.70117C5.5 10.6312 7.07 12.2012 9 12.2012ZM9 7.20117C9.83 7.20117 10.5 7.87117 10.5 8.70117C10.5 9.53117 9.83 10.2012 9 10.2012C8.17 10.2012 7.5 9.53117 7.5 8.70117C7.5 7.87117 8.17 7.20117 9 7.20117ZM16.04 14.0112C17.2 14.8512 18 15.9712 18 17.4512V19.2012H22V17.4512C22 15.4312 18.5 14.2812 16.04 14.0112ZM15 12.2012C16.93 12.2012 18.5 10.6312 18.5 8.70117C18.5 6.77117 16.93 5.20117 15 5.20117C14.46 5.20117 13.96 5.33117 13.5 5.55117C14.13 6.44117 14.5 7.53117 14.5 8.70117C14.5 9.87117 14.13 10.9612 13.5 11.8512C13.96 12.0712 14.46 12.2012 15 12.2012Z" fill="#A2A2FF"/>
</g>
</svg>

<svg width="24" height="25" fill="none" xmlns="http://www.w3.org/2000/svg"><path d="M9 13.951c-2.34 0-7 1.17-7 3.5v1.75h14v-1.75c0-2.33-4.66-3.5-7-3.5zm-4.66 3.25c.84-.58 2.87-1.25 4.66-1.25s3.82.67 4.66 1.25H4.34zm4.66-5c1.93 0 3.5-1.57 3.5-3.5s-1.57-3.5-3.5-3.5-3.5 1.57-3.5 3.5 1.57 3.5 3.5 3.5zm0-5c.83 0 1.5.67 1.5 1.5s-.67 1.5-1.5 1.5-1.5-.67-1.5-1.5.67-1.5 1.5-1.5zm7.04 6.81c1.16.84 1.96 1.96 1.96 3.44v1.75h4v-1.75c0-2.02-3.5-3.17-5.96-3.44zM15 12.201c1.93 0 3.5-1.57 3.5-3.5s-1.57-3.5-3.5-3.5c-.54 0-1.04.13-1.5.35.63.89 1 1.98 1 3.15s-.37 2.26-1 3.15c.46.22.96.35 1.5.35z" fill="#A2A2FF"/></svg>
